X: 4
T: The High Road To Linton
R: reel
M: 4/4
L: 1/8
K: Amix
|:ceef a2ae|f2fe a2ae|ceef a2ae|faec B2A2:||:ceeg fddf|ecce fBBd|ceeg fddf|ecac B2A2:||:a2a2 efa2|efae faef|a2a2 efae|faec B2A2:||:cdec defd|cdec BcdB|cdec def^g|afec B2A2:|


Tune 1118	Setting 14379

